projects/flag-game/flags/Maldives.svg

<svg viewBox="0 0 1000 667" xmlns="http://www.w3.org/2000/svg" xmlns:xlink="http://www.w3.org/1999/xlink"><clipPath id="a"><path d="m0 0h1000v666.71875h-1000zm0 0"/></clipPath><g clip-path="url(#a)"><path d="m0 666.667969v-666.667969h1000v666.667969zm0 0" fill="#d21034" fill-rule="evenodd"/></g><g fill-rule="evenodd"><path d="m166.667969 166.667969h666.664062v333.332031h-666.664062zm0 0" fill="#007e3a"/><path d="m652.777344 333.332031c0 61.371094-49.742188 111.113281-111.109375 111.113281-61.371094 0-111.113281-49.742187-111.113281-111.113281 0-61.367187 49.742187-111.109375 111.113281-111.109375 61.367187 0 111.109375 49.742188 111.109375 111.109375zm0 0" fill="#fff"/><path d="m694.445312 333.332031c0 61.371094-49.742187 111.113281-111.113281 111.113281-61.367187 0-111.109375-49.742187-111.109375-111.113281 0-61.367187 49.742188-111.109375 111.109375-111.109375 61.371094 0 111.113281 49.742188 111.113281 111.109375zm0 0" fill="#007e3a"/></g></svg>

<?xml version="1.0" encoding="UTF-8"?>
<svg xmlns="http://www.w3.org/2000/svg" xmlns:xlink="http://www.w3.org/1999/xlink" viewBox="0 0 1000 667" version="1.1">
<defs>
<clipPath id="clip1">
  <path d="M 0 0 L 1000 0 L 1000 666.71875 L 0 666.71875 Z M 0 0 "/>
</clipPath>
</defs>
<g id="surface740">
<g clip-path="url(#clip1)" clip-rule="nonzero">
<path style=" stroke:none;fill-rule:evenodd;fill:rgb(82.351685%,6.274414%,20.391846%);fill-opacity:1;" d="M 0 666.667969 L 0 0 L 1000 0 L 1000 666.667969 Z M 0 666.667969 "/>
</g>
<path style=" stroke:none;fill-rule:evenodd;fill:rgb(0%,49.411011%,22.744751%);fill-opacity:1;" d="M 166.667969 166.667969 L 833.332031 166.667969 L 833.332031 500 L 166.667969 500 Z M 166.667969 166.667969 "/>
<path style=" stroke:none;fill-rule:evenodd;fill:rgb(99.998474%,99.998474%,99.998474%);fill-opacity:1;" d="M 652.777344 333.332031 C 652.777344 394.703125 603.035156 444.445312 541.667969 444.445312 C 480.296875 444.445312 430.554688 394.703125 430.554688 333.332031 C 430.554688 271.964844 480.296875 222.222656 541.667969 222.222656 C 603.035156 222.222656 652.777344 271.964844 652.777344 333.332031 Z M 652.777344 333.332031 "/>
<path style=" stroke:none;fill-rule:evenodd;fill:rgb(0%,49.411011%,22.744751%);fill-opacity:1;" d="M 694.445312 333.332031 C 694.445312 394.703125 644.703125 444.445312 583.332031 444.445312 C 521.964844 444.445312 472.222656 394.703125 472.222656 333.332031 C 472.222656 271.964844 521.964844 222.222656 583.332031 222.222656 C 644.703125 222.222656 694.445312 271.964844 694.445312 333.332031 Z M 694.445312 333.332031 "/>
</g>
</svg>
